X: 1
T: Niguno shel Yossi (in D)
O: Israel
Z: John Chambers <jc@trillian.mit.edu>
M: 4/4
L: 1/4
K: Dphr^F
|: "D"AA FF | "Cm"GGFE | "D"DD "Cm"EC | "D"D4 \
| "D"AA FF | "Cm"GG cB | "D"AG "Cm"FG | "D"A4 :|
|: "Gm"G2 B2 | "Cm"cB "D"A2 | "Gm"GG BB | "Cm"cB "D"A2 \
| "Cm"cB AG | "Gm"BA GF |1 GF GB | "D"A4 :|2 "Cm"AG FE | "D"D4 |]
